X: 59
T: Pekkos Pers storpolska efter Hjort Anders
S: efter Hjort Anders Olsson
O: Bingsjö, Dalarna
R: Polska
Z: Håkan Lidén, 2005-08-11
S: abcnotation.org 2020-12-31
S: http://www.folkwiki.se/Musik/998 
M: 3/4
L: 1/8
K: D
V:1
D |\
"D" F>A dd f/a/f/d/ | "A" c/d/e/c/ A3 A-| A/B/c/d/ ec/e/ fe/f/ | "A" g/a/g/e/ "D/A" [df][df] "A" c>d | "A" e/f/e/c/ "D" d3  D| 
"D" F>A dd fe/f/ | "A/C#" gg "D" f/g/f/e/ "D/F#" d>c- | "G" cB B3 B | "D" BA/G/ FA fe/d/ | "A" c>e aa cd |
"A" e/f/e/c/ "D" d3 :: z | "D" f>d fd fa | "A" e/f/e/d/ c/B/c/d/ ef | "G" [G,2D2B2g2] g/a/g/f/ "E/G#" e/f/e/d/ | 
"A" c/d/c/B/ A/B/A/G/ F/D/F/A/ | "D/A" df/d/ "A" ce/c/ "D" df | "A" e/f/e/d/ c/B/c/d/ ef | "G" [Bg]g/b/ "A" a/b/a/g/ "D" fe/f/ |
"A" g/a/g/e/ "D/A" [df][df] "A" cd | "A" e/f/e/c/ "D" d3 :: D | "D" F>A d(3e/d/c/ d2 | [FA][FA] [F2A2] [F2A2] | "Em" E/F/E/D/ EF G>B- | 
"G" B2 "A" BA/G/ "D" F2 | "D" AA dd f/g/f/e/ | "G" dc B3 d | "A" c/d/e/f/ ga/g/ "D/A" fe/d/ | "A" c/d/e/c/ "D" d3 :|]
V:2
A, |\
D>F FA d/f/d/B/ | A/B/c/A/ E3 C-| C/E/A/B/ cA/c/ dc/d/ | e/c/A/G/ FF E>F | G/A/G/E/ F3 A, |
D>F FA dc/d/ | ec d/e/d/c/ B>A- | AG G3 G | GF/E/ DF dc/B/ | A>B cc AF | 
G/A/G/E/ F3 :: z | A>F AF AB | c/d/c/B/ A/^G/A/B/ cd | [G,2D2B2] B/c/B/A/ G/A/G/F/ | 
E/F/E/D/ C/D/C/B,/ A,D/E/ | FA/F/ EG/E/ FA | c/d/c/B/ A/^G/A/B/ cd | [DB]B/d/ c/d/c/B/ AG/A/ |
B/c/B/G/ FF EF | G/A/G/E/ F3 :: A, | D>D F(3G/F/E/ F2 | [DA][DA] [D2A2] [D2A2] | G/A/G/F/ ED E>G- |
G2 GF/E/ D2 | FF FA d/e/d/c/ | BA G3 B | A/B/c/d/ ef/e/ dc/B/ | A/B/G/A/ F3 :|]
